resources/icons/scopy-light/icons/debugger.svg

<?xml version="1.0" encoding="UTF-8"?>
<svg width="20px" height="20px" viewBox="0 0 20 20" version="1.1" xmlns="http://www.w3.org/2000/svg" xmlns:xlink="http://www.w3.org/1999/xlink">
    <!-- Generator: sketchtool 63.1 (101010) - https://sketch.com -->
    <title>F6E21ED0-2276-4CD7-B3D4-285F7E40FB42</title>
    <desc>Created with sketchtool.</desc>
    <g id="main" stroke="none" stroke-width="1" fill="none" fill-rule="evenodd" opacity="0.600000024">
        <g id="controlDay-ics" transform="translate(-168.000000, -844.000000)" fill="#000000">
            <path d="M168,852 L168,856 L170.26,856 C170.442347,856.720962 170.728683,857.411538 171.11,858.05 L169.51,859.65 L172.34,862.48 L173.94,860.88 C174.581982,861.261395 175.275865,861.547706 176,861.73 L176,863.99 L180,863.99 L180,861.73 C180.724135,861.547706 181.418018,861.261395 182.06,860.88 L183.66,862.48 L186.49,859.65 L184.89,858.05 C185.267197,857.409475 185.553283,856.719505 185.74,856 L188,856 L188,852 L185.74,852 C185.553308,851.277325 185.267247,850.584048 184.89,849.94 L186.49,848.34 L183.66,845.51 L182.06,847.11 C181.415952,846.732753 180.722675,846.446692 180,846.26 L180,844 L176,844 L176,846.26 C175.277325,846.446692 174.584048,846.732753 173.94,847.11 L172.34,845.51 L169.51,848.34 L171.11,849.94 C170.728605,850.581982 170.442294,851.275865 170.26,852 L168,852 L168,852 Z M178,848 C181.313708,848 184,850.686292 184,854 C184,857.313708 181.313708,860 178,860 C174.686292,860 172,857.313708 172,854 C172,850.686292 174.686292,848 178,848 L178,848 Z M178,851 C179.656854,851 181,852.343146 181,854 C181,855.656854 179.656854,857 178,857 C176.343146,857 175,855.656854 175,854 C175,852.343146 176.343146,851 178,851 L178,851 Z M178,855 C178.552285,855 179,854.552285 179,854 C179,853.447715 178.552285,853 178,853 C177.447715,853 177,853.447715 177,854 C177,854.552285 177.447715,855 178,855 L178,855 Z" id="Gear"></path>
        </g>
    </g>
</svg>

<?xml version="1.0" encoding="UTF-8"?>
<svg width="20px" height="20px" version="1.1" viewBox="0 0 20 20" xmlns="http://www.w3.org/2000/svg">
 <g fill="#000" opacity=".6" fill-rule="evenodd">
  <g transform="translate(-168 -844)">
   <path d="m168 852v4h2.26c0.18235 0.72096 0.46868 1.4115 0.85 2.05l-1.6 1.6 2.83 2.83 1.6-1.6c0.64198 0.3814 1.3359 0.66771 2.06 0.85v2.26h4v-2.26c0.72414-0.18229 1.418-0.4686 2.06-0.85l1.6 1.6 2.83-2.83-1.6-1.6c0.3772-0.64052 0.66328-1.3305 0.85-2.05h2.26v-4h-2.26c-0.18669-0.72268-0.47275-1.416-0.85-2.06l1.6-1.6-2.83-2.83-1.6 1.6c-0.64405-0.37725-1.3373-0.66331-2.06-0.85v-2.26h-4v2.26c-0.72268 0.18669-1.416 0.47275-2.06 0.85l-1.6-1.6-2.83 2.83 1.6 1.6c-0.3814 0.64198-0.66771 1.3359-0.85 2.06h-2.26zm10-4c3.3137 0 6 2.6863 6 6s-2.6863 6-6 6-6-2.6863-6-6 2.6863-6 6-6zm0 3c1.6569 0 3 1.3431 3 3s-1.3431 3-3 3-3-1.3431-3-3 1.3431-3 3-3zm0 4c0.55228 0 1-0.44772 1-1s-0.44772-1-1-1-1 0.44772-1 1 0.44772 1 1 1z"/>
  </g>
 </g>
</svg>
